X: 34472
T: Ridee
R: waltz
M: 3/4
K: Eminor
EBAG FG A2 GFED|EBAG FGAF A2 GF|
EBAG FG A2 GFED|EBAG FG A2 GF E2||
G2 FD G2 FD EFGB|A2 GB AF A2 GFEF|
G2 FD G2 FD EFGB|A2 GB AF A2 GFED||

